X:1
T:Ad quem fugiam
T:Ignatio Donati
T:Source : Piimi libro di Motetti a voce sola---Venetia---A.Vincenti---1634. Editor : André Vierendeels (16/12/16).
T:Notes : Original clefs : C4, F4 Editorial accidentals above the staff Figures in BC are notated in original print "Tenore o Canto"
T:Ad quem fugiam
T:©
T:©
T:©
T:©
T:©
T:©
T:©
C:Ignatio Donati
Z:©
%%score 1 2
L:1/8
Q:1/4=120
M:4/4
K:F
V:1 treble-8 nm="Tenor" snm="T"
V:2 bass nm="MusicXML Part"
V:1
 z4 G4- | G3 A ^F3 G | A4 F4- | F2 ED E4 | z4 A4- | A2 EE E3 F/G/ | ^F6 F2 | ^F4 G4- | G4 F4 | E8 | %10
w: Ad|_ quem fu- gi-|am ni-|* si ad te,|O|_ cle- men- tis- si- me|Do- mi-|ne Je-|* su|Chri-|
 D4 d4- | d2 AA A3 B/c/ | =B6 B2 | =B4 c4- | c4 B4 | A8 | G4 z2 B2- | BA G2 A2 d2- | dc B2 A2 ^F2 | %19
w: ste, O|_ cle- men- tis- si- me|Do- mi-|ne Je-|* su|Chri-|ste, u-|* ni- ca spes, u-|* ni- ca spes sa-|
 ^F2 F2 G4- | G6 _ED | D8 | C2 c3 B A2 | G2 B3 A c2 | A2 A2 A2 B2 | c8- | c2 AG G4 | F8 | z4 d4- | %29
w: lu- tis, a-|* ni- mae|me-|ae, u- ni- ca|spes, u- ni- ca|spes sa- lu- tis|a-|* ni- mae me-|ae,|re-|
 d3 A A3 D | D3 D D2 _E>F | D4 D2 GD | _EDFE D4 | C4 e4- | e3 =B B3 E | E3 E E2 FG | E4 E2 AE | %37
w: * spi- ce me|mi- se- rum pec- ca-|to- rum no- men|tu- um in- vo- can-|tem, re-|* spi- ce me|mi- se- rum pec- ca-|to- rum no- men|
 FEGF E4 | D8 | z4 c4- | c2 A2 A4 | A2 d2 d2 c2 | B4 B4 | c8 | B4 d4 | A6 D2 | D4 E2 EE | %47
w: tu- um in- vo- can-|tem,|et|_ da mi-|hi con- tri- ti-|o- nem|cor-|dis, et|la- cry-|mas o- cu- lis|
 ^F2 G4 F2 | G8 | z4 C4 | D3 D D2 D2 | E4 E4 | z4 F4 | G3 G G2 G2 | A2 AA A2 D2 | E2 E2 F2 G2 | %56
w: me- * *|is,|ut|de- fi- ciam di-|e- bus|ut|de- fi- ciam di-|e- bus ac no- sti-|bus pec- ca- ta|
 A4 A4 | z4 _EDEC | D8 | C4 c4- | c4 B3 d | A8 | G8 | z4 F4 | G3 G ^G2 G2 | A4 A4 | z4 B4 | %67
w: me- a,|cum hu- mi- li-|ta-|te et|_ pi- e-|ta-|te,|ut|de- fi- ciam di-|e- bus|ut|
 c3 c ^c2 c2 | d2 dd d2 D2 | E2 E2 F2 G2 | A4 A4 | z4 FEFD | E8 | D4 d4- | d6 AA | A8 | G8 |] %77
w: de- fi- ciam di-|e- bus ac no- cti-|bus pec- ca- ta|me- a,|cum hu- mi- li-|ta-|te et|_ pi- e-|ta-|te.|
V:2
"^BC""^#" G,,8 |"^b""^#" C,4 D,3 G,, | F,,4 F,,4 |"^#" G,,4 C,4 | A,,6 =B,,2 | ^C,8 | %6
"^#""^#" D,6 D,2 |"^#" D,4 =B,,2 C,2 |"^#" A,,6 G,,2 |"^#" A,,8 |"^#" D,6 E,2 | ^F,8 | %12
"^-natural" G,8 | G,4 E,2 F,2 |"^#" D,6 C,2 |"^#" D,8 | G,,4 G,,2 G,2- | G,F, _E,3 D, B,,2- | %18
 B,,A,, G,,2 D,4 |"^#" D,4 =B,,4 |"^b" =B,,2 B,,2 C,4 |"^-natural" G,,8 | C,2 A,,3 G,, F,,2 | %23
 C,2 G,3 F, _E,2 |"^#""^#" D,4 D,4 | E,4 F,4 | C,8 | F,,4 F,,4 | B,,6 C,2 |"^#" D,8 | %30
"^-natural" G,,8 |"^-natural" G,,8 |"^-natural" G,,2 F,,2 G,,4 | C,6 D,2 | E,8 |"^#" A,,8 | %36
"^#" A,,8 |"^#""^#" A,,2 G,,2 A,,4 |"^#""^-natural" D,4 G,,4 | C,8 | F,8 |"^#" D,8 |"^6" _E,4 D,4 | %43
"^4 3" F,8 | B,,4 B,,4 |"^#" C,4 D,4 | =B,,4 C,4 | A,,8 |"^-natural" G,,4 =B,,4 | C,8 | B,,6 D,2 | %51
"^#""^#" A,,4 A,,4 | F,8 | _E,6 G,2 | D,6 B,,2 | A,,6 G,,2 | F,,4 F,,4 |"^3 4" G,,8 | %58
"^-natural" G,,8 | C,8 |"^#" D,8 |"^#" D,8 | G,,8 | F,8 |"^#" C,4 E,4 |"^#" A,,4 D,4 | B,,8 | %67
"^#" F,,4 A,,4 | D,6 B,,2 | A,,6 G,,2 | F,,6 G,,2 |"^#" A,,8- | A,,8 |"^#" D,4 =B,,2 C,2 | %74
"^#" D,8- | D,8 | G,,8 |] %77

